/* XPM */
static char *collect[] = {
/* columns rows colors chars-per-pixel */
"64 64 35 1 ",
"  c black",
". c #1C1030",
"X c #1C1030",
"o c None",
"O c #5A2F40",
"+ c #5C3446",
"@ c #9F5A5C",
"# c #170625",
"$ c #341B2E",
"% c #C3967A",
"& c #E6B495",
"* c #F7E3D2",
"= c #FFFEE8",
"- c #E28251",
"; c #FFC47B",
": c #FFE095",
"> c #7B433B",
", c #F3A770",
"< c #B86A4A",
"1 c #F2A66F",
"2 c #F3A76F",
"3 c #FFC87B",
"4 c #D28D6D",
"5 c #D64B0E",
"6 c #E9600E",
"7 c #F46C0E",
"8 c #D2390E",
"9 c #FFA30E",
"0 c #FF890E",
"q c #FFBC56",
"w c #D64D0E",
"e c #FFC14A",
"r c #B87364",
"t c #E6B698",
"y c white",
/* pixels */
"                            OOOO++++@@@@@@@@@@@@@@@@            ",
"                            OOOO++++@@@@@@@@@@@@@@@@            ",
"                            OOOO++++@@@@@@@@@@@@@@@@            ",
"                            OOOO++++@@@@@@@@@@@@@@@@            ",
"                    ########$$$$%%%%&&&&********========OOOO    ",
"                    ########$$$$%%%%&&&&********========OOOO    ",
"                    ########$$$$%%%%&&&&********========OOOO    ",
"                    ########$$$$%%%%&&&&********========OOOO    ",
"                ####--------;;;;::::>>>>;;;;========********OOOO",
"                ####--------;;;;::::>>>>;;;;========********OOOO",
"                ####--------;;;;::::>>>>;;;;========********OOOO",
"                ####--------;;;;::::>>>>;;;;========********OOOO",
"            ########--------,,,,;;;;--------<<<<========<<<<****$$$$",
"            ########--------,,,,;;;;--------<<<<========<<<<****$$$$",
"            ########--------,,,,;;;;--------<<<<========<<<<****$$$$",
"            ########--------,,,,;;;;--------<<<<========<<<<****$$$$",
"        ####;;;;@@@@--------,,,,11112222--------;;;;========3333$$$$",
"        ####;;;;@@@@--------,,,,11112222--------;;;;========3333$$$$",
"        ####;;;;@@@@--------,,,,11112222--------;;;;========3333$$$$",
"        ####;;;;@@@@--------,,,,11112222--------;;;;========3333$$$$",
"    ####::::4444@@@@555566667777666666668888****5555####        ",
"    ####::::4444@@@@555566667777666666668888****5555####        ",
"    ####::::4444@@@@555566667777666666668888****5555####        ",
"    ####::::4444@@@@555566667777666666668888****5555####        ",
"    ####;;;;@@@@####888855558888777777776666&&&&8888####        ",
"    ####;;;;@@@@####888855558888777777776666&&&&8888####        ",
"    ####;;;;@@@@####888855558888777777776666&&&&8888####        ",
"    ####;;;;@@@@####888855558888777777776666&&&&8888####        ",
"    ####4444########555566665555999900006666qqqq5555####        ",
"    ####4444########555566665555999900006666qqqq5555####        ",
"    ####4444########555566665555999900006666qqqq5555####        ",
"    ####4444########555566665555999900006666qqqq5555####        ",
"    ####4444@@@@####55557777wwwweeee00008888========5555####    ",
"    ####4444@@@@####55557777wwwweeee00008888========5555####    ",
"    ####4444@@@@####55557777wwwweeee00008888========5555####    ",
"    ####4444@@@@####55557777wwwweeee00008888========5555####    ",
"    ####@@@@rrrr####5555000077779999777788880000####            ",
"    ####@@@@rrrr####5555000077779999777788880000####            ",
"    ####@@@@rrrr####5555000077779999777788880000####            ",
"    ####@@@@rrrr####5555000077779999777788880000####            ",
"        ####rrrr@@@@88885555888866667777555577778888####        ",
"        ####rrrr@@@@88885555888866667777555577778888####        ",
"        ####rrrr@@@@88885555888866667777555577778888####        ",
"        ####rrrr@@@@88885555888866667777555577778888####        ",
"        ####@@@@rrrr55556666wwww99990000666600005555####        ",
"        ####@@@@rrrr55556666wwww99990000666600005555####        ",
"        ####@@@@rrrr55556666wwww99990000666600005555####        ",
"        ####@@@@rrrr55556666wwww99990000666600005555####        ",
"            ####@@@@55557777wwwweeee0000777799995555####        ",
"            ####@@@@55557777wwwweeee0000777799995555####        ",
"            ####@@@@55557777wwwweeee0000777799995555####        ",
"            ####@@@@55557777wwwweeee0000777799995555####        ",
"                ####55550000777777779999777777775555####        ",
"                ####55550000777777779999777777775555####        ",
"                ####55550000777777779999777777775555####        ",
"                ####55550000777777779999777777775555####        ",
"                ####@@@@--------,,,,;;;;****====****tttt####    ",
"                ####@@@@--------,,,,;;;;****====****tttt####    ",
"                ####@@@@--------,,,,;;;;****====****tttt####    ",
"                ####@@@@--------,,,,;;;;****====****tttt####    ",
"        ....XXXXoooo################################XXXX....    ",
"        ....XXXXoooo################################XXXX....    ",
"        ....XXXXoooo################################XXXX....    ",
"        ....XXXXoooo################################XXXX....    "
};
