/* XPM */
static char *exit_xpm[] = {
/* columns rows colors chars-per-pixel */
"64 64 5 1 ",
"  c None",
". c #181425",
"X c #262B44",
"o c #5A6988",
"O c #8B9BB4",
/* pixels */
"            ........                ........                ....",
"            ........                ........                ....",
"            ........                ........                ....",
"            ........                ........                ....",
"    ooooooooOOOOOOOOooooooooooooooooOOOOOOOOoooooooooooooooo    ",
"    ooooooooOOOOOOOOooooooooooooooooOOOOOOOOoooooooooooooooo    ",
"    ooooooooOOOOOOOOooooooooooooooooOOOOOOOOoooooooooooooooo    ",
"    ooooooooOOOOOOOOooooooooooooooooOOOOOOOOoooooooooooooooo    ",
"XXXXooooooooOOOOOOOOooooooooooooooooOOOOOOOOooooooooooooooooXXXX",
"XXXXooooooooOOOOOOOOooooooooooooooooOOOOOOOOooooooooooooooooXXXX",
"XXXXooooooooOOOOOOOOooooooooooooooooOOOOOOOOooooooooooooooooXXXX",
"XXXXooooooooOOOOOOOOooooooooooooooooOOOOOOOOooooooooooooooooXXXX",
"XXXXooooOOOOOOOOOOOOOOOOOOOOOOOOOOOOOOOOOOOOOOOOOOOOOOOOooooXXXX",
"XXXXooooOOOOOOOOOOOOOOOOOOOOOOOOOOOOOOOOOOOOOOOOOOOOOOOOooooXXXX",
"XXXXooooOOOOOOOOOOOOOOOOOOOOOOOOOOOOOOOOOOOOOOOOOOOOOOOOooooXXXX",
"XXXXooooOOOOOOOOOOOOOOOOOOOOOOOOOOOOOOOOOOOOOOOOOOOOOOOOooooXXXX",
"XXXXooooOOOOOOOOOOOOOOOOOOOOOOOOOOOOOOOOOOOOOOOOOOOOOOOOooooXXXX",
"XXXXooooOOOOOOOOOOOOOOOOOOOOOOOOOOOOOOOOOOOOOOOOOOOOOOOOooooXXXX",
"XXXXooooOOOOOOOOOOOOOOOOOOOOOOOOOOOOOOOOOOOOOOOOOOOOOOOOooooXXXX",
"XXXXooooOOOOOOOOOOOOOOOOOOOOOOOOOOOOOOOOOOOOOOOOOOOOOOOOooooXXXX",
"XXXXooooOOOOOOOOXXXX........................XXXXOOOOOOOOooooXXXX",
"XXXXooooOOOOOOOOXXXX........................XXXXOOOOOOOOooooXXXX",
"XXXXooooOOOOOOOOXXXX........................XXXXOOOOOOOOooooXXXX",
"XXXXooooOOOOOOOOXXXX........................XXXXOOOOOOOOooooXXXX",
"XXXXooooOOOOXXXX................................XXXXOOOOooooXXXX",
"XXXXooooOOOOXXXX................................XXXXOOOOooooXXXX",
"XXXXooooOOOOXXXX................................XXXXOOOOooooXXXX",
"XXXXooooOOOOXXXX................................XXXXOOOOooooXXXX",
"XXXXooooOOOOXXXX................................XXXXOOOOooooXXXX",
"XXXXooooOOOOXXXX................................XXXXOOOOooooXXXX",
"XXXXooooOOOOXXXX................................XXXXOOOOooooXXXX",
"XXXXooooOOOOXXXX................................XXXXOOOOooooXXXX",
"XXXXooooOOOOXXXX................................XXXXOOOOooooXXXX",
"XXXXooooOOOOXXXX................................XXXXOOOOooooXXXX",
"XXXXooooOOOOXXXX................................XXXXOOOOooooXXXX",
"XXXXooooOOOOXXXX................................XXXXOOOOooooXXXX",
"XXXXooooOOOOXXXX................................XXXXOOOOooooXXXX",
"XXXXooooOOOOXXXX................................XXXXOOOOooooXXXX",
"XXXXooooOOOOXXXX................................XXXXOOOOooooXXXX",
"XXXXooooOOOOXXXX................................XXXXOOOOooooXXXX",
"XXXXooooOOOOXXXX................................XXXXOOOOooooXXXX",
"XXXXooooOOOOXXXX................................XXXXOOOOooooXXXX",
"XXXXooooOOOOXXXX................................XXXXOOOOooooXXXX",
"XXXXooooOOOOXXXX................................XXXXOOOOooooXXXX",
"XXXXooooOOOOXXXX................................XXXXOOOOooooXXXX",
"XXXXooooOOOOXXXX................................XXXXOOOOooooXXXX",
"XXXXooooOOOOXXXX................................XXXXOOOOooooXXXX",
"XXXXooooOOOOXXXX................................XXXXOOOOooooXXXX",
"XXXXooooOOOOXXXX................................XXXXOOOOooooXXXX",
"XXXXooooOOOOXXXX................................XXXXOOOOooooXXXX",
"XXXXooooOOOOXXXX................................XXXXOOOOooooXXXX",
"XXXXooooOOOOXXXX................................XXXXOOOOooooXXXX",
"XXXXooooOOOOXXXX................................XXXXOOOOooooXXXX",
"XXXXooooOOOOXXXX................................XXXXOOOOooooXXXX",
"XXXXooooOOOOXXXX................................XXXXOOOOooooXXXX",
"XXXXooooOOOOXXXX................................XXXXOOOOooooXXXX",
"XXXXooooOOOOXXXX................................XXXXOOOOooooXXXX",
"XXXXooooOOOOXXXX................................XXXXOOOOooooXXXX",
"XXXXooooOOOOXXXX................................XXXXOOOOooooXXXX",
"XXXXooooOOOOXXXX................................XXXXOOOOooooXXXX",
"XXXXooooOOOOXXXX................................XXXXOOOOooooXXXX",
"XXXXooooOOOOXXXX................................XXXXOOOOooooXXXX",
"XXXXooooOOOOXXXX................................XXXXOOOOooooXXXX",
"XXXXooooOOOOXXXX................................XXXXOOOOooooXXXX"
};
