/* XPM */
static char *floor[] = {
/* columns rows colors chars-per-pixel */
"64 64 3 1 ",
"  c #181425",
". c #262B44",
"X c #3A4466",
/* pixels */
"XXXXXXXX            XXXXXXXX    XXXXXXXX            XXXXXXXX    ",
"XXXXXXXX            XXXXXXXX    XXXXXXXX            XXXXXXXX    ",
"XXXXXXXX            XXXXXXXX    XXXXXXXX            XXXXXXXX    ",
"XXXXXXXX            XXXXXXXX    XXXXXXXX            XXXXXXXX    ",
"........XXXXXXXX    ........    ........XXXXXXXX    ........    ",
"........XXXXXXXX    ........    ........XXXXXXXX    ........    ",
"........XXXXXXXX    ........    ........XXXXXXXX    ........    ",
"........XXXXXXXX    ........    ........XXXXXXXX    ........    ",
"....    ........        ........    ........        ........    ",
"....    ........        ........    ........        ........    ",
"....    ........        ........    ........        ........    ",
"....    ........        ........    ........        ........    ",
"....        XXXXXXXXXXXX    ....        XXXXXXXXXXXX    ....    ",
"....        XXXXXXXXXXXX    ....        XXXXXXXXXXXX    ....    ",
"....        XXXXXXXXXXXX    ....        XXXXXXXXXXXX    ....    ",
"....        XXXXXXXXXXXX    ....        XXXXXXXXXXXX    ....    ",
"    XXXXXXXX    ............        XXXXXXXX    ............    ",
"    XXXXXXXX    ............        XXXXXXXX    ............    ",
"    XXXXXXXX    ............        XXXXXXXX    ............    ",
"    XXXXXXXX    ............        XXXXXXXX    ............    ",
"XXXX........    ........    XXXXXXXX........    ........    XXXX",
"XXXX........    ........    XXXXXXXX........    ........    XXXX",
"XXXX........    ........    XXXXXXXX........    ........    XXXX",
"XXXX........    ........    XXXXXXXX........    ........    XXXX",
"........XXXXXXXX        ............XXXXXXXX        ........    ",
"........XXXXXXXX        ............XXXXXXXX        ........    ",
"........XXXXXXXX        ............XXXXXXXX        ........    ",
"........XXXXXXXX        ............XXXXXXXX        ........    ",
"        ................    ....        ................    ....",
"        ................    ....        ................    ....",
"        ................    ....        ................    ....",
"        ................    ....        ................    ....",
"XXXXXXXX            XXXXXXXX    XXXXXXXX            XXXXXXXX    ",
"XXXXXXXX            XXXXXXXX    XXXXXXXX            XXXXXXXX    ",
"XXXXXXXX            XXXXXXXX    XXXXXXXX            XXXXXXXX    ",
"XXXXXXXX            XXXXXXXX    XXXXXXXX            XXXXXXXX    ",
"........XXXXXXXX    ........    ........XXXXXXXX    ........    ",
"........XXXXXXXX    ........    ........XXXXXXXX    ........    ",
"........XXXXXXXX    ........    ........XXXXXXXX    ........    ",
"........XXXXXXXX    ........    ........XXXXXXXX    ........    ",
"....    ........        ........    ........        ........    ",
"....    ........        ........    ........        ........    ",
"....    ........        ........    ........        ........    ",
"....    ........        ........    ........        ........    ",
"....        XXXXXXXXXXXX    ....        XXXXXXXXXXXX    ....    ",
"....        XXXXXXXXXXXX    ....        XXXXXXXXXXXX    ....    ",
"....        XXXXXXXXXXXX    ....        XXXXXXXXXXXX    ....    ",
"....        XXXXXXXXXXXX    ....        XXXXXXXXXXXX    ....    ",
"    XXXXXXXX    ............        XXXXXXXX    ............    ",
"    XXXXXXXX    ............        XXXXXXXX    ............    ",
"    XXXXXXXX    ............        XXXXXXXX    ............    ",
"    XXXXXXXX    ............        XXXXXXXX    ............    ",
"XXXX........    ........    XXXXXXXX........    ........    XXXX",
"XXXX........    ........    XXXXXXXX........    ........    XXXX",
"XXXX........    ........    XXXXXXXX........    ........    XXXX",
"XXXX........    ........    XXXXXXXX........    ........    XXXX",
"........XXXXXXXX        ............XXXXXXXX        ........    ",
"........XXXXXXXX        ............XXXXXXXX        ........    ",
"........XXXXXXXX        ............XXXXXXXX        ........    ",
"........XXXXXXXX        ............XXXXXXXX        ........    ",
"        ................    ....        ................    ....",
"        ................    ....        ................    ....",
"        ................    ....        ................    ....",
"        ................    ....        ................    ...."
};
