/* XPM */
static char *player[] = {
/* columns rows colors chars-per-pixel */
"64 64 53 1 ",
"  c None",
". c black",
"X c gray13",
"o c #2C2227",
"O c #D78C77",
"+ c #EB9486",
"@ c #EDAF97",
"# c #F1B29E",
"$ c #DBB1A6",
"% c #DCB2AA",
"& c #DFB3AB",
"* c #DEB5A8",
"= c #DFB2AD",
"- c #E6B4A0",
"; c #E1B5AD",
": c #E1B8AA",
"> c #E3BAAD",
", c #E2B8AF",
"< c #FBD3B1",
"1 c #FBD2B3",
"2 c #FDD5B5",
"3 c #FDD7B6",
"4 c #FED8B7",
"5 c #EAC6C2",
"6 c #FAF3E5",
"7 c #FBF2E7",
"8 c #FDF3E6",
"9 c #F9F5E6",
"0 c #FBF4E6",
"q c #FDF4E4",
"w c #FEF5E6",
"e c #FDF7E7",
"r c #FFF8E4",
"t c #FEF8E6",
"y c #FBF4E8",
"u c #FAF6E8",
"i c #F9F4EA",
"p c #FAF6EA",
"a c #FEF4E8",
"s c #FDF6E9",
"d c #FDF6EB",
"f c #FEF7EA",
"g c #FAF5EC",
"h c #FCF6ED",
"j c #FEF7EC",
"k c #FEF7EE",
"l c #FDF9E8",
"z c #FDF8EA",
"x c #FDF8EE",
"c c #FEF9EF",
"v c #FBF8F0",
"b c #FEF8F3",
"n c white",
/* pixels */
"                                                                ",
"                                                                ",
"                                                                ",
"                                                                ",
"                                                                ",
"                                                                ",
"                                                                ",
"                                                                ",
"        XXXX                    XXXX                            ",
"        XXXX                    XXXX                            ",
"      XX22XXXXXXXXXXXXXXXXXXXXXX22XX                            ",
"      XX22XXXXXXXXXXXXXXXXXXXXXX22XX                            ",
"      XXOO22XX2222--22--2222XX22OOOOXX                          ",
"      XXOO22XX2222--22--2222XX22OOOOXX                          ",
"      XXOO22XX2222--22--2222XX22OOOOXX                          ",
"      XXOO22XX2222--22--2222XX22OOOOXX                          ",
"      XXOO22222222--22--2222222222OOXX                          ",
"      XXOO22222222--22--2222222222OOXX                          ",
"      XX22222222222222--2222222222OOXX                          ",
"      XX22222222222222--2222222222OOXX                          ",
"      XX2222222211112222222222222222XX                          ",
"      XX2222222211112222222222222222XX                          ",
"    XX22222222222222222222222222222222XX                        ",
"    XX22222222222222222222222222222222XX                        ",
"    XX222222nnnn..2222222222nnnn..222222XX                      ",
"    XX222222nnnn..2222222222nnnn..222222XX                      ",
"    oo222222....2222..2222..2222....224422XX                    ",
"    oo222222....2222..2222..2222....224422XX                    ",
"    XX22++++wwwwww..ww..wwwwww++++11XX                          ",
"    XX22++++wwwwww..ww..wwwwww++++11XX                          ",
"      XX++++wwwwwwwwwwwwwwwwww++++wwXX                          ",
"      XX++++wwwwwwwwwwwwwwwwww++++wwXX                          ",
"      XXwwwwwwwwwwwwwwwwwwwwwwwwwwXX                            ",
"      XXwwwwwwwwwwwwwwwwwwwwwwwwwwXX                            ",
"        XXwwaawwwwwwwwwwwwwwwwwwXX                              ",
"        XXwwaawwwwwwwwwwwwwwwwwwXX                              ",
"          XX55wwwwwwwwwwwwww,,XX                                ",
"          XX55wwwwwwwwwwwwww,,XX                                ",
"          XXww,,;;%%%%$$**::wwXX    XXXX                        ",
"          XXww,,;;%%%%$$**::wwXX    XXXX                        ",
"          XXwwwwwwwwwwwwwwwwww##XXXX----XX                      ",
"          XXwwwwwwwwwwwwwwwwww##XXXX----XX                      ",
"        XXwwwwwwwwwwwwwwwwhhww@@--XX------XX                    ",
"        XXwwwwwwwwwwwwwwwwhhww@@--XX------XX                    ",
"        XXwwwwwwaaaaaaaawwwwwwww--XXXX----XX                    ",
"        XXwwwwwwaaaaaaaawwwwwwww--XXXX----XX                    ",
"        XXwwwwwwwwwwwwwwwwwwwwww--XX  XXrr--XX                  ",
"        XXwwwwwwwwwwwwwwwwwwwwww--XX  XXrr--XX                  ",
"        XXwwwwww66XXwwwwwwww--wwwwXXXX  XXzz--XX                ",
"        XXwwwwww66XXwwwwwwww--wwwwXXXX  XXzz--XX                ",
"        XXwwwwww99XXwwwwwwii--wwwwzzzzXXXXzz--XX                ",
"        XXwwwwww99XXwwwwwwii--wwwwzzzzXXXXzz--XX                ",
"  XXXXXXXX--wwwwiiXXwwzzaaXXXXXXXX--zzXXzzrr--XX                ",
"  XXXXXXXX--wwwwiiXXwwzzaaXXXXXXXX--zzXXzzrr--XX                ",
"XXii999999XXwwwwggXXwwiiXX66vvcccc--zzXXzz----XX                ",
"XXii999999XXwwwwggXXwwiiXX66vvcccc--zzXXzz----XX                ",
"XX--aa9999XXwwwwhhXXwwzzXX--wwzzzz----zz----XX                  ",
"XX--aa9999XXwwwwhhXXwwzzXX--wwzzzz----zz----XX                  ",
"XX----9999XXbbwwwwXXwwzzXX----88hh--------XX                    ",
"XX----9999XXbbwwwwXXwwzzXX----88hh--------XX                    ",
"  XX----99XX------XXwwaaXX----------XXXXXX                      ",
"  XX----99XX------XXwwaaXX----------XXXXXX                      ",
"    XXXXXXXXXXXXXXXXXXXXXXXXXXXXXXXX                            ",
"    XXXXXXXXXXXXXXXXXXXXXXXXXXXXXXXX                            "
};
