/* XPM */
static char *wall[] = {
/* columns rows colors chars-per-pixel */
"64 64 16 1 ",
"  c #332F2C",
". c #682818",
"X c #444241",
"o c #4E4C4C",
"O c #555555",
"+ c #656565",
"@ c gray44",
"# c #767474",
"$ c #7B7B7B",
"% c #7E7E7E",
"& c #8A3A26",
"* c #CA4F1F",
"= c #E4B218",
"- c #F5C739",
"; c #888888",
": c #E0F8CF",
/* pixels */
"        XXXXXXXXXXXXooooXXXXXXXXXXXXXooooXXXXXXX        ",
"        XXXXXXXXXXXXooooXXXXXXXXXXXXXooooXXXXXXX        ",
"        XXXXXXXXXXXXooooXXXXXXXXXXXXXooooXXXXXXX        ",
"        XXXXXXXXXXXXooooXXXXXXXXXXXXXooooXXXXXXX        ",
"    ooooOOOOooooooooOOOOOOOOooooooooOOOOOOOOoooooooo    ",
"    ooooOOOOooooooooOOOOOOOOooooooooOOOOOOOOoooooooo    ",
"    ooooOOOOooooooooOOOOOOOOooooooooOOOOOOOOoooooooo    ",
"    ooooOOOOooooooooOOOOOOOOooooooooOOOOOOOOoooooooo    ",
"XXXXooooOOOOoooo++++$$$$$$$$oooooooo$$$$$$$$++++ooooOOOOoooo    ",
"XXXXooooOOOOoooo++++$$$$$$$$oooooooo$$$$$$$$++++ooooOOOOoooo    ",
"XXXXooooOOOOoooo++++$$$$$$$$oooooooo$$$$$$$$++++ooooOOOOoooo    ",
"XXXXooooOOOOoooo++++$$$$$$$$oooooooo$$$$$$$$++++ooooOOOOoooo    ",
"    OOOOOOOO++++;;;;;;;;$$$$OOOO++++;;;;;;;;$$$$++++OOOOOOOOXXXX",
"    OOOOOOOO++++;;;;;;;;$$$$OOOO++++;;;;;;;;$$$$++++OOOOOOOOXXXX",
"    OOOOOOOO++++;;;;;;;;$$$$OOOO++++;;;;;;;;$$$$++++OOOOOOOOXXXX",
"    OOOOOOOO++++;;;;;;;;$$$$OOOO++++;;;;;;;;$$$$++++OOOOOOOOXXXX",
"XXXXOOOOOOOOXXXX####$$$$++++XXXX++++@@@@$$$$@@@@XXXXooooOOOOXXXX",
"XXXXOOOOOOOOXXXX####$$$$++++XXXX++++@@@@$$$$@@@@XXXXooooOOOOXXXX",
"XXXXOOOOOOOOXXXX####$$$$++++XXXX++++@@@@$$$$@@@@XXXXooooOOOOXXXX",
"XXXXOOOOOOOOXXXX####$$$$++++XXXX++++@@@@$$$$@@@@XXXXooooOOOOXXXX",
"XXXX++++;;;;$$$$XXXX########OOOO++++@@@@####XXXX;;;;$$$$++++    ",
"XXXX++++;;;;$$$$XXXX########OOOO++++@@@@####XXXX;;;;$$$$++++    ",
"XXXX++++;;;;$$$$XXXX########OOOO++++@@@@####XXXX;;;;$$$$++++    ",
"XXXX++++;;;;$$$$XXXX########OOOO++++@@@@####XXXX;;;;$$$$++++    ",
"XXXX$$$$$$$$####OOOO                        OOOO$$$$@@@@$$$$XXXX",
"XXXX$$$$$$$$####OOOO                        OOOO$$$$@@@@$$$$XXXX",
"XXXX$$$$$$$$####OOOO                        OOOO$$$$@@@@$$$$XXXX",
"XXXX$$$$$$$$####OOOO                        OOOO$$$$@@@@$$$$XXXX",
"XXXX@@@@####OOOO    ........................    OOOO++++@@@@XXXX",
"XXXX@@@@####OOOO    ........................    OOOO++++@@@@XXXX",
"XXXX@@@@####OOOO    ........................    OOOO++++@@@@XXXX",
"XXXX@@@@####OOOO    ........................    OOOO++++@@@@XXXX",
"    XXXXoooo    ....................&&&&........    ooooXXXX    ",
"    XXXXoooo    ....................&&&&........    ooooXXXX    ",
"    XXXXoooo    ....................&&&&........    ooooXXXX    ",
"    XXXXoooo    ....................&&&&........    ooooXXXX    ",
"    ;;;;%%%%    ....&&&&............&&&&&&&&....    ;;;;####    ",
"    ;;;;%%%%    ....&&&&............&&&&&&&&....    ;;;;####    ",
"    ;;;;%%%%    ....&&&&............&&&&&&&&....    ;;;;####    ",
"    ;;;;%%%%    ....&&&&............&&&&&&&&....    ;;;;####    ",
"XXXX%%%%;;;;    &&&&&&&&&&&&....&&&&&&&&****&&&&OOOO;;;;;;;;XXXX",
"XXXX%%%%;;;;    &&&&&&&&&&&&....&&&&&&&&****&&&&OOOO;;;;;;;;XXXX",
"XXXX%%%%;;;;    &&&&&&&&&&&&....&&&&&&&&****&&&&OOOO;;;;;;;;XXXX",
"XXXX%%%%;;;;    &&&&&&&&&&&&....&&&&&&&&****&&&&OOOO;;;;;;;;XXXX",
"XXXX;;;;;;;;OOOO&&&&****&&&&&&**&&&&****====****OOOO%%%%%%%%XXXX",
"XXXX;;;;;;;;OOOO&&&&****&&&&&&**&&&&****====****OOOO%%%%%%%%XXXX",
"XXXX;;;;;;;;OOOO&&&&****&&&&&&**&&&&****====****OOOO%%%%%%%%XXXX",
"XXXX;;;;;;;;OOOO&&&&****&&&&&&**&&&&****====****OOOO%%%%%%%%XXXX",
"oooo%%%%%%%%OOOO****----****----****----====OOOO@@@@@@@@oooo",
"oooo%%%%%%%%OOOO****----****----****----====OOOO@@@@@@@@oooo",
"oooo%%%%%%%%OOOO****----****----****----====OOOO@@@@@@@@oooo",
"oooo%%%%%%%%OOOO****----****----****----====OOOO@@@@@@@@oooo",
"XXXX%%%%@@@@OOOO====::::----****----****::::----OOOO@@@@%%%%XXXX",
"XXXX%%%%@@@@OOOO====::::----****----****::::----OOOO@@@@%%%%XXXX",
"XXXX%%%%@@@@OOOO====::::----****----****::::----OOOO@@@@%%%%XXXX",
"XXXX%%%%@@@@OOOO====::::----****----****::::----OOOO@@@@%%%%XXXX",
"    ;;;;%%%%OOOO====::::::::====::::----::::::::OOOO@@@@@@@@    ",
"    ;;;;%%%%OOOO====::::::::====::::----::::::::OOOO@@@@@@@@    ",
"    ;;;;%%%%OOOO====::::::::====::::----::::::::OOOO@@@@@@@@    ",
"    ;;;;%%%%OOOO====::::::::====::::----::::::::OOOO@@@@@@@@    ",
"    XXXXXX  XXXX            XXXX    OOOOOOOO    XXXXXX  XXXX    ",
"    XXXXXX  XXXX            XXXX    OOOOOOOO    XXXXXX  XXXX    ",
"    XXXXXX  XXXX            XXXX    OOOOOOOO    XXXXXX  XXXX    ",
"    XXXXXX  XXXX            XXXX    OOOOOOOO    XXXXXX  XXXX    "
};
